X:1
T:Spira cosi
T:Spira cosi
T:Giovanni Maria Artusi
T:Source : Canzonette a 4 voci---Libro primo---Venetia---G.Vincenti---1598. Editor : André Vierendeels (20/02/14).
C:Giovanni Maria Artusi
%%score [ 1 2 3 4 ]
L:1/8
Q:1/4=86
M:4/4
K:C
V:1 treble nm="Canto 1" snm="C 1"
V:2 treble nm="Canto 2" snm="C 2"
V:3 treble nm="Alto" snm="A"
V:4 treble-8 nm="Tenor" snm="T"
V:1
 z4 g2 gf | e2 d2 cd ec | d4 e4 | z8 | z4 c4- | c2 de f2 f2 | ed ef g4 | g4 e2 ee | e2 f2 d4 | e8 | %10
w: Spi- ra co-|si dol- c'au- * * *|* ra,||spi-|* ra co- si dol-|c'au- * * * *|ra, dal- la tua|boc- c'O Lau-|ra,|
 z8 | z8 | z4 g2 gf | e2 d2 ed ef | g4 e4 | A2 Bc d2 A2 | cB cd e4 | e4 c2 cc | c2 c2 B4 | c4 e4 | %20
w: ||spi- ra co-|si dol- c'au- * * *|* ra,|spi- ra co- si dol-|c'au- * * * *|ra, dal- la tua|boc- c'o Lau-|ra, che|
 d2 d2 e2 f2 | e2 dc d2 e2 | f4 e4 | z4 d4 | c2 A2 B2 c2 | B4 c4 | z8 | z4 z2 c2 | B2 G2 A2 B2 | %29
w: sprez- s'hog- gi Cu-|pi- * * * *|* do,|per|quel- l'e Pa- so'e|Gni- do,||che|sprez- z'hog- gi Cu-|
 c6 G2 | B4 c2 d2 | e2 e2 d4 | e8 |] %33
w: pi- do,|per quel- l'e|Pa- so'e Gni-|do.|
V:2
 z8 | z8 | z4 g2 gf | e2 d2 ed ef | g4 e4 | A2 Bc d2 A2 | cB cd e4 | e4 c2 cc | c2 c2 B4 | c8 | %10
w: ||Spi- ra co-|si dol- c'au- * * *|* ra,|spi- ra dol- c'au- *||ra, dal- la tua|boc- c'O Lau-|ra,|
 z4 g2 gf | e2 d2 cd ec | d4 e4 | z8 | z4 c4- | c2 de f2 f2 | ed ef g4 | g4 e2 ee | e2 f2 d4 | e8 | %20
w: spi- ra co-|si dol- c'au- * * *|* ra,||spi-|* ra co- si dol-|c'au- * * * *|ra, dal- la tua|boc- c'O Lau-|ra,|
 z8 | z2 c2 B2 G2 | A2 B2 c4- | c2 G2 B4 | c2 d2 e2 e2 | d4 e4 | e4 d2 d2 | e2 f2 e2 dc | %28
w: |che sprez- z'hog-|gi Cu- pi-|* do, per|quel- l'e Pa- so'e|Gni- do,|che sprez' z'hog-|gi Cu- pi- * *|
 d2 e2 f4 | e8 | z2 d2 c2 A2 | B2 c2 B4 | c8 |] %33
w: |do,|per quel- l'e|Pa- so'e Gni-|do.|
V:3
 G2 AB c4- | c2 B2 A4 | G8 | z4 c2 cc | B2 B2 G2 G2 | z8 | z4 c2 cc | c2 c2 G2 GG | A2 A2 G4 | G8 | %10
w: Spi- ra co- si|_ dol- c'au-|ra,|spi- ra co-|si dol- c'au- ra,||dal- la tua|boc- ca, dal- la tua|boc- c'O Lau-|ra,|
 G2 AB c4- | c2 B2 A4 | G8 | z4 c2 cc | B2 B2 G2 G2 | z8 | z4 c2 cc | c2 c2 G2 GG | A2 A2 G4 | %19
w: dal- la tua boc-|* c'O Lau-|ra,|spi- ra co-|si dol- c'au- ra,||dal- la tua|boc- ca, dal- la tua|boc- c'O Lau-|
 G4 G4 | _B2 F2 A2 A2 | E4 G4 | z4 A4 | G2 E2 G4 | E2 F2 G2 G2 | G4 G4 | z2 G2 _B2 F2 | A2 A2 E4 | %28
w: ra, che|sprez- z'hog- gi Cu-|pi- do,|per|quel- l'e Pa-|so, e Pa- so'e|Gni- do,|che sprez- z'hog-|gi Cu- pi-|
 G4 z4 | A4 G2 E2 | G4 E2 F2 | G2 G2 G4 | G8 |] %33
w: do,|per quel- l'e|Pa- so, e|Pa- so'e Gni-|do.|
V:4
 z8 | z8 | G2 AB c4- | c2 B2 A4 | G4 c2 de | f2 e2 d4 | c8 | z4 c2 cc | A2 F2 G4 | C8 | z8 | z8 | %12
w: ||Spi- ra co- si|_ dol- c'au-|ra, spi- ra co-|si dol- c'au-|ra,|dal- la tua|boc- c'O Lau-|ra,|||
 G2 AB c4- | c2 B2 A4 | G4 c2 de | f2 e2 d4 | c8 | z4 c2 cc | A2 F2 G4 | C4 c4 | G2 _B2 A2 F2 | %21
w: spi- ra co- si|_ dol- c'au-|ra, spi- ra co-|si dol- c'au-|ra,|dal- la tua|boc- c'O Lau-|ra, che|sprez- z'hig- gi Cu-|
 A4 G2 c2 | F2 G2 A2 B2 | c4 G2 G2 | A2 F2 E2 C2 | G4 C4 | c4 G2 _B2 | A2 F2 A4 | G2 c2 F2 G2 | %29
w: pi- do, che|sprez' z'hog- gi Cu-|pi- do, per|quel- l'e Pa- so'e|Gni- do,|che sprez- z'hog-|gi Cu- pi-|do, che sprez'- z'hog-|
 A2 B2 c4 | G2 G2 A2 F2 | E2 C2 G4 | C8 |] %33
w: gi Cu- pi-|do, per quel- l'e|Pa- so'e Gni-|do.|

